X: 372
T: Jacky Lattin
R: reel
M: C
L: 1/8
Z: 2012 John Chambers <jc:trillian.mit.edu>
B: J. Anderson "Budget of Strathspeys, Reels and Country Dances" (Early 1800s) p.37 #2
F: http://imslp.org/wiki/Anderson%27s_Budget_of_Strathspeys,_Reels_and_Country_Dances_(Various)
K: G
|: (G/A/B/c/) (dg) dBBg | dBBg d2B2 | (G/A/B/c/) (dg) dBBg | aAAB c2(BA) :|
|: (G/A/B/c/) dB ecdB | (B/A/B/c/) (dB) d2B2 | (G/A/B/c/) (dB) ecdB | aAAB c2(BA) :|

%%sep 2 1 500
%%sep 1 1 500

